src/.vuepress/public/assets/websites/fromston.svg

<svg width="646" height="295" viewBox="0 0 646 295" fill="none" xmlns="http://www.w3.org/2000/svg">
<mask id="mask0_6278_129" style="mask-type:luminance" maskUnits="userSpaceOnUse" x="148" y="9" width="341" height="133">
<path d="M148.709 9.75732L228.769 141.718L488.826 108.958L432.877 70.3085L245.518 20.2481L148.709 9.75732Z" fill="white"/>
</mask>
<g mask="url(#mask0_6278_129)">
<mask id="mask1_6278_129" style="mask-type:luminance" maskUnits="userSpaceOnUse" x="-3451" y="-2450" width="9964" height="5605">
<path d="M6512.11 -2449.29H-3450.68V3154.74H6512.11V-2449.29Z" fill="white"/>
</mask>
<g mask="url(#mask1_6278_129)">
<path d="M493.981 4.60156H143.558V146.869H493.981V4.60156Z" fill="#28437C"/>
</g>
</g>
<mask id="mask2_6278_129" style="mask-type:luminance" maskUnits="userSpaceOnUse" x="134" y="0" width="376" height="149">
<path d="M163.433 19.6928L248.094 31.4718L434.164 81.9004L467.845 106.378L228.033 131.593L163.433 19.6928ZM251.407 14.7237L134.169 0L219.751 148.341L509.991 117.789L441.894 66.2565L252.511 14.9077L251.407 14.7237Z" fill="white"/>
</mask>
<g mask="url(#mask2_6278_129)">
<mask id="mask3_6278_129" style="mask-type:luminance" maskUnits="userSpaceOnUse" x="-3451" y="-2450" width="9964" height="5605">
<path d="M6512.11 -2449.29H-3450.68V3154.74H6512.11V-2449.29Z" fill="white"/>
</mask>
<g mask="url(#mask3_6278_129)">
<path d="M514.964 -5.33594H128.836V153.312H514.964V-5.33594Z" fill="#28437C"/>
</g>
</g>
<mask id="mask4_6278_129" style="mask-type:luminance" maskUnits="userSpaceOnUse" x="0" y="0" width="250" height="295">
<path d="M134.537 0L143.372 12.8832L29.2633 116.501L231.53 266.498L216.07 140.979L231.53 138.955L249.198 294.841L0 117.605L134.537 0Z" fill="white"/>
</mask>
<g mask="url(#mask4_6278_129)">
<mask id="mask5_6278_129" style="mask-type:luminance" maskUnits="userSpaceOnUse" x="-3451" y="-2450" width="9964" height="5605">
<path d="M6512.11 -2449.29H-3450.68V3154.74H6512.11V-2449.29Z" fill="white"/>
</mask>
<g mask="url(#mask5_6278_129)">
<path d="M254.538 -5.15234H-5.15039V300.18H254.538V-5.15234Z" fill="#28437C"/>
</g>
</g>
<mask id="mask6_6278_129" style="mask-type:luminance" maskUnits="userSpaceOnUse" x="266" y="117" width="380" height="178">
<path d="M491.218 119.264L509.806 117.608L646 290.979L268.89 294.844L266.498 279.2L613.424 275.335L491.218 119.264Z" fill="white"/>
</mask>
<g mask="url(#mask6_6278_129)">
<mask id="mask7_6278_129" style="mask-type:luminance" maskUnits="userSpaceOnUse" x="-3451" y="-2450" width="9964" height="5605">
<path d="M6512.11 -2449.29H-3450.68V3154.74H6512.11V-2449.29Z" fill="white"/>
</mask>
<g mask="url(#mask7_6278_129)">
<path d="M651.158 112.453H261.349V299.996H651.158V112.453Z" fill="#28437C"/>
</g>
</g>
</svg>

<svg xmlns="http://www.w3.org/2000/svg" width="646" height="295" fill="none" viewBox="0 0 646 295"><mask id="a" width="341" height="133" x="148" y="9" maskUnits="userSpaceOnUse" style="mask-type:luminance"><path fill="#fff" d="m148.709 9.757 80.06 131.961 260.057-32.76-55.949-38.65-187.359-50.06z"/></mask><g mask="url(#a)"><mask id="b" width="9964" height="5605" x="-3451" y="-2450" maskUnits="userSpaceOnUse" style="mask-type:luminance"><path fill="#fff" d="M6512.11-2449.29h-9962.79v5604.03h9962.79z"/></mask><g mask="url(#b)"><path fill="#28437C" d="M493.981 4.602H143.558v142.267h350.423z"/></g></g><mask id="c" width="376" height="149" x="134" y="0" maskUnits="userSpaceOnUse" style="mask-type:luminance"><path fill="#fff" d="m163.433 19.693 84.661 11.779L434.164 81.9l33.681 24.478-239.812 25.215zm87.974-4.97L134.169 0l85.582 148.341 290.24-30.552-68.097-51.532-189.383-51.35z"/></mask><g mask="url(#c)"><mask id="d" width="9964" height="5605" x="-3451" y="-2450" maskUnits="userSpaceOnUse" style="mask-type:luminance"><path fill="#fff" d="M6512.11-2449.29h-9962.79v5604.03h9962.79z"/></mask><g mask="url(#d)"><path fill="#28437C" d="M514.964-5.336H128.836v158.648h386.128z"/></g></g><mask id="e" width="250" height="295" x="0" y="0" maskUnits="userSpaceOnUse" style="mask-type:luminance"><path fill="#fff" d="m134.537 0 8.835 12.883L29.263 116.501 231.53 266.498l-15.46-125.519 15.46-2.024 17.668 155.886L0 117.605z"/></mask><g mask="url(#e)"><mask id="f" width="9964" height="5605" x="-3451" y="-2450" maskUnits="userSpaceOnUse" style="mask-type:luminance"><path fill="#fff" d="M6512.11-2449.29h-9962.79v5604.03h9962.79z"/></mask><g mask="url(#f)"><path fill="#28437C" d="M254.538-5.152H-5.15V300.18h259.688z"/></g></g><mask id="g" width="380" height="178" x="266" y="117" maskUnits="userSpaceOnUse" style="mask-type:luminance"><path fill="#fff" d="m491.218 119.264 18.588-1.656L646 290.979l-377.11 3.865-2.392-15.644 346.926-3.865z"/></mask><g mask="url(#g)"><mask id="h" width="9964" height="5605" x="-3451" y="-2450" maskUnits="userSpaceOnUse" style="mask-type:luminance"><path fill="#fff" d="M6512.11-2449.29h-9962.79v5604.03h9962.79z"/></mask><g mask="url(#h)"><path fill="#28437C" d="M651.158 112.453H261.349v187.543h389.809z"/></g></g></svg>
